X:1
T:G minor James P. Carrell, 1821
T:Charles Wesley, 1746 Funeral Hymns No. 2    88. 88. 88. 88. (L. M. D.)
T:Funeral
T:Transcribed from Songs of Zion, 1821
%%score [ 1 2 3 4 ]
L:1/8
Q:1/4=120
M:4/4
K:Bb
V:1 treble nm="Tr." snm="Tr."
V:2 treble nm="C." snm="C."
V:3 treble-8 nm="T." snm="T."
V:4 bass nm="B." snm="B."
V:1
"^1. Re –joice  for  a  brother  deceased,    Our    loss   is   his   in–fi–nite  gain,   A  soul  out  of  pri–son  re–leased, And freed  from  its" (B2 A2) | %1
 G4 G2 G2 | d4 e2 d2 | c6 d2 | B4 G2 B2 | A4 B2 c2 | d4 d4 | d4 de f2 | g4 f2 d2 | f6 f2 | %10
 d4 B2 c2 | %11
"^1. bo–di–ly chain:   With songs let us follow his flight,  And mount with his  spirit  a–bove,  E  – scaped  to  the  mansions  of  light,  And" d4 d2 A2 | %12
 G8 | z4 B4 | G4 G2 B2 | A4 A2 G2 | A6 A2 | B4 G2 ^F2 | G4 B2 c2 | d4 (3(d2 e2 f2) | g4 g2 g2 | %21
 f4 d2 c2 | B6 c2 |"^1. lodged  in   the   E – den  of   love." (d g3) g2 f2 | d4 d2 d2 | d8 |] %26
V:2
"^2. Our  brother  the  haven  hath  gained,  Out – flying  the tempest and wind,  His   rest   he   hath  sooner  obtained,  And left his com–" G4 | %1
 G4 D2 G2 | F4 G2 A2 | G6 G2 | G4 G2 G2 | F4 D2 C2 | D4 D4 | F4 D2 F2 | G4 F2 G2 | A6 A2 | %10
 G4 G2 F2 | %11
"^2. –panions behind;   Still  tossed on  a sea  of  distress,  Hard  toiling to make the blest shore, Where  all  is  as–sur–ance and  peace,   And" D4 D2 D2 | %12
 G8 | z4 G4 | G4 G2 G2 | F4 F2 D2 | F6 F2 | G4 G2 ^F2 | D4 DE F2 | G4 G4 | G4 G2 G2 | A4 A2 A2 | %22
 B6 A2 |"^2. sor – row  and   sin   are  no  more." G4 G2 F2 | D4 D2 D2 | G8 |] %26
V:3
"^3. There  all  the  ship’s  company  meet,  Who sailed with the Savior beneath, With shouting  each  other  they  greet,  And triumph o’er" (G3 A) | %1
 B4 G2 B2 | A4 G2 F2 | G6 B>c | d4 B2 d2 | f4 d2 c2 | d4 B4 | A4 G2 F2 | G4 GA B2 | c6 c2 | %10
 d4 d2 A2 | %11
"^3. trouble and death:   The voyage of life’s  at  an  end,  The  mor–tal   af – flic – tion  is  past,     The        age  that  in  heaven  they spend  For" B4 G2 A2 | %12
 G8 | z4 G4 | B4 B2 G2 | c4 c2 B2 | c6 c2 | d4 g2 ^f2 | g4 f2 e2 | d4 B4 | (d3 c) B2 G2 | %21
 c4 f2 e2 | d6 ^f2 |"^3. ev   –   er   and   ev –  er  shall   last." (g d3) d2 c2 | B4 A2 A2 | %25
 G8 |] %26
V:4
 G,4 | G,4 G,2 G,2 | D,4 B,,2 D,2 | C,6 D,2 | D,4 A,2 G,2 | A,4 D,2 F,2 | G,4 (D,2 E,2) | %7
 F,4 B,2 C2 | D4 D2 B,2 | F,6 F,2 | G,4 G,2 A,2 | B,4 D2 D,2 | G,8 | z4 G,4 | B,,4 B,,2 B,,2 | %15
 F,4 F,2 G,2 | F,6 F,2 | D,4 B,2 A,2 | G,4 D2 CB, | G,4 D4 | D4 G,2 B,2 | F,4 F,2 G,2 | D,6 ^F,2 | %23
 B,4"^__________________________________________\nEdited by B. C. Johnston, 2017\n   1. Measure 18, \nTenor\n: last note marked as F#, \nCounter\n and \nTreble\n should be F# as well.\n   2. Measure 24, Bass: last note changed from F to F#, as in Tenor." B,2 C2 | %24
 D4 D,2 D,2 | G,8 |] %26

